styles/3/Numix/16/actions/grey-add-folders-to-archive.svg

<?xml version="1.0" encoding="UTF-8" standalone="no"?>
<svg
   xmlns:dc="http://purl.org/dc/elements/1.1/"
   xmlns:cc="http://creativecommons.org/ns#"
   xmlns:rdf="http://www.w3.org/1999/02/22-rdf-syntax-ns#"
   xmlns:svg="http://www.w3.org/2000/svg"
   xmlns="http://www.w3.org/2000/svg"
   xmlns:sodipodi="http://sodipodi.sourceforge.net/DTD/sodipodi-0.dtd"
   xmlns:inkscape="http://www.inkscape.org/namespaces/inkscape"
   width="16"
   height="16"
   viewBox="0 0 16 16"
   id="svg2"
   version="1.1"
   inkscape:version="0.91 r"
   sodipodi:docname="grey-add-folders-to-archive.svg">
  <metadata
     id="metadata24">
    <rdf:RDF>
      <cc:Work
         rdf:about="">
        <dc:format>image/svg+xml</dc:format>
        <dc:type
           rdf:resource="http://purl.org/dc/dcmitype/StillImage" />
      </cc:Work>
    </rdf:RDF>
  </metadata>
  <defs
     id="defs22" />
  <sodipodi:namedview
     pagecolor="#ffffff"
     bordercolor="#666666"
     borderopacity="1"
     objecttolerance="10"
     gridtolerance="10"
     guidetolerance="10"
     inkscape:pageopacity="0"
     inkscape:pageshadow="2"
     inkscape:window-width="1280"
     inkscape:window-height="998"
     id="namedview20"
     showgrid="true"
     inkscape:zoom="14.75"
     inkscape:cx="-11.422781"
     inkscape:cy="13.114838"
     inkscape:window-x="0"
     inkscape:window-y="0"
     inkscape:window-maximized="1"
     inkscape:current-layer="svg2">
    <inkscape:grid
       type="xygrid"
       id="grid3085" />
  </sodipodi:namedview>
  <path
     style="fill:#757575;fill-opacity:1;stroke:none"
     d="M 1,6.0000001 1,10 13,10 13,6.0000001 z"
     id="rect3757-9-4"
     inkscape:connector-curvature="0"
     sodipodi:nodetypes="ccccc" />
  <path
     style="fill:#757575;fill-opacity:1;stroke:none"
     d="m 3,6.0000001 c 0,-0.4999999 0,-1 0.727273,-1 l 2.545454,0 C 7,5.0000001 7,5.5000002 7,6.0000001 z"
     id="path3759-1-9"
     inkscape:connector-curvature="0"
     sodipodi:nodetypes="ccccc" />
  <rect
     style="fill:#d8d8da;fill-opacity:1;fill-rule:evenodd;stroke:none"
     id="rect3012-1"
     width="10"
     height="3.6361582"
     x="2"
     y="6.9999995" />
  <path
     style="fill:#bdbdbd;fill-opacity:1;stroke:none"
     d="M 0,8 14,8 13,16 1,16 z"
     id="path2987-9-1"
     inkscape:connector-curvature="0"
     sodipodi:nodetypes="ccccc" />
  <path
     style="fill:#000000;fill-opacity:0.10196079;stroke:none"
     d="M 3.71875 5 C 2.991477 5 3 5.5000001 3 6 L 1 6 L 1 8 L 0 8 L 1 16 L 13 16 L 14 8 L 13 8 L 13 6 L 7 6 C 7 5.5000001 7.008523 5 6.28125 5 L 3.71875 5 z "
     id="path3028" />
  <path
     style="fill:#757575;fill-opacity:1;stroke:none"
     d="M 3,2 3,6 15,6 15,2 z"
     id="rect3757-9"
     inkscape:connector-curvature="0"
     sodipodi:nodetypes="ccccc" />
  <path
     style="fill:#757575;fill-opacity:1;stroke:none"
     d="M 5,2 C 5,1.5000001 5,1 5.7272728,1 L 8.2727274,1 C 9,1 9,1.5000001 9,2 z"
     id="path3759-1"
     inkscape:connector-curvature="0"
     sodipodi:nodetypes="ccccc" />
  <rect
     style="fill:#d8d8da;fill-opacity:1;fill-rule:evenodd;stroke:none"
     id="rect3012"
     width="10"
     height="3.6361582"
     x="4"
     y="3" />
  <path
     style="fill:#bdbdbd;fill-opacity:1;stroke:none"
     d="M 2,4 16,4 15,12 3,12 z"
     id="path2987-9"
     inkscape:connector-curvature="0"
     sodipodi:nodetypes="ccccc" />
  <path
     style="fill:#859900"
     d="m 15.99996,9.9999265 -3,0 0,-2.9999999 -3,0 0,2.9999999 -3.0000003,0 0,2.9999995 3.0000003,0 0,3 3,0 0,-3 3,0 z"
     id="path18" />
</svg>

<svg xmlns="http://www.w3.org/2000/svg" viewBox="0 0 16 16">
 <path d="m 1 6 0 4 12 0 0 -4 z" style="fill:#757575;fill-opacity:1;stroke:none"/>
 <path d="m 3 6 c 0 -0.5 0 -1 0.727 -1 l 2.545 0 c 0.727 0 0.727 0.5 0.727 1 z" style="fill:#757575;fill-opacity:1;stroke:none"/>
 <rect width="10" height="3.636" x="2" y="7" style="fill:#d8d8da;fill-opacity:1;stroke:none;fill-rule:evenodd"/>
 <path d="m 0 8 14 0 -1 8 -12 0 z" style="fill:#bdbdbd;fill-opacity:1;stroke:none"/>
 <path d="m 3.719 5 c -0.727 0 -0.719 0.5 -0.719 1 l -2 0 l 0 2 l -1 0 l 1 8 l 12 0 l 1 -8 l -1 0 l 0 -2 l -6 0 c 0 -0.5 0.009 -1 -0.719 -1 l -2.563 0 z" style="fill:#000;fill-opacity:0.102;stroke:none"/>
 <path d="m 3 2 0 4 12 0 0 -4 z" style="fill:#757575;fill-opacity:1;stroke:none"/>
 <path d="m 5 2 c 0 -0.5 0 -1 0.727 -1 l 2.545 0 c 0.727 0 0.727 0.5 0.727 1 z" style="fill:#757575;fill-opacity:1;stroke:none"/>
 <rect width="10" height="3.636" x="4" y="3" style="fill:#d8d8da;fill-opacity:1;stroke:none;fill-rule:evenodd"/>
 <path d="m 2 4 14 0 -1 8 -12 0 z" style="fill:#bdbdbd;fill-opacity:1;stroke:none"/>
 <path d="m 16 10 -3 0 0 -3 -3 0 0 3 -3 0 0 3 3 0 0 3 3 0 0 -3 3 0 z" style="fill:#859900"/>
</svg>
